X:1
T:Title
%%score { 1 | 2 }
L:1/8
M:3/4
K:D
V:1 treble nm="Grand Piano"
V:2 bass 
V:1
 z2 z2 z[Q:1/4=94] F | AA A3 F | [G,CE][A,CF] [F,D]3 [DFA] | BB d3 d |[M:5/8] [FA]-[FA]- [FA]3 | %5
[M:1/8] F |[M:3/4] AA A3 F | %7
[M:15/16] [G,CE][A,CF]/-[A,CF]/[K:bass][F,D]- [F,D]3- [F,D]/[K:treble][DB] | %8
[M:3/4] [A,DA][DB] [A,DF]2 [G,CE]2 |[M:5/8][K:bass] [F,D]-[F,D]- [F,D]3 |[M:1/8][K:treble] [DFA] | %11
[M:3/4] [Fd][Fd] [Fd]3 [FA] | [FA][GB] [FA]3 [DF] | [CE][DF] G3 c |[M:5/8] cB [FA]3 |[M:1/8] [FA] | %16
[M:3/4] [Fd][Fd] [Fd]3 [FA] | [FA][GB] [FA]3 [Ad] | [Ac][GB] [FA] [Gd]3 | %19
[M:5/8] [DF][CE] D3[Q:1/4=91][Q:1/4=88][Q:1/4=85][Q:1/4=82][Q:1/4=79][Q:1/4=76][Q:1/4=73] |] %20
V:2
 z2 z2 z [D,A,D] | [D,F,D][D,F,D] [D,F,D]3 [D,A,D] | A,,A,, D,3 D, | %3
 [G,DG][G,DG] [G,B,G]3 [G,B,G] |[M:5/8][K:bass] [D,D]-[D,D]- [D,D]3 |[M:1/8] [D,A,D] | %6
[M:3/4] [D,F,D][D,F,D] [D,F,D]3 [D,A,D] |[M:15/16] A,,A,,/-A,,/D,- D,3- D,/G, | %8
[M:3/4] F,G, A,,2 A,,2 |[M:5/8] D,-D,- D,3 |[M:1/8] D, |[M:3/4] [D,A,][D,A,] [D,A,]3 [D,D] | %12
 [D,D][D,D] [D,D]3 [D,A,] | [A,,A,][A,,A,][K:treble] [A,CE]3 [A,EG] | %14
[M:5/8] [A,EG][A,CG][K:bass] [D,D]3 |[M:1/8] [D,D] |[M:3/4] [D,A,][D,A,] [D,A,]3 [D,D] | %17
 [D,D][D,D] [D,D]3 [F,D] | [G,D][G,D] [D,D] [D,A,]3 |[M:5/8] [A,,A,][A,,G,] [D,F,]3 |] %20

